X: 7
T: The Eel In The Sink
R: reel
M: 4/4
L: 1/8
K: Bmin
|f2Bc defd|e2 cAeA (3cde|fBBc defg|afec fB B2|
f2Bc defd|e2 cAeA (3cde|fBBc defg|afec fB B2||
|b2fb bafe|(3cde fg a3a|b2fb babc'|afec fB B2|
b2fb bafe|(3cde fg a3a|bgaf gefg|(3agf ec cB B2||


Tune 1446	Setting 14832

